!!!COM: avril-lavigne
!!!OTL: when-youre-gone
!!!RNB: hooktheoryid: BbWgMOYzolX
**kern	**text
*clefG2	*
*k[f#]	*
*M4/4	*
=1	=1
2..r	D
16r	.
16b	.
=2	=2
8dd	G
16b	.
8.dd	.
8b	.
4dd	D/F#
8ff#	.
[8gg	.
=3	=3
8gg]	Em
4r	.
16dd	.
16dd	.
8bb	.
8aa	.
8gg	.
[8ee	.
=4	=4
8ee]	C
4r	.
16r	.
16dd	.
8bb	.
8aa	.
16gg	.
16aa	.
[8aa	.
=5	=5
8aa]	D
2.r	.
16b	.
16cc	.
=6	=6
8dd	G
16b	.
4dd	.
16dd	.
8dd	D/F#
8ee	.
8ff#	.
8gg	.
=7	=7
4ee	Em
8r	.
16ee	.
16ee	.
8bb	.
8aa	.
8gg	.
[8ee	.
=8	=8
8ee]	C
8.r	.
16ee	.
16ee	.
16ee	.
8bb	.
8aa	.
16gg	.
16aa	.
8aa	.
=9	=9
16gg	D
8.ff#	.
2.r	.
*-	*-